X: 10286
T: Dogs Among The Bushes, The
R: reel
M: 4/4
K: Gmajor
BG~G2 DG~G2|BG~G2 cedc|BG~G2 DG ~G2|AF~F2 fdcA|
BG~G2 DG~G2|BG~G2 c3A|BG~G2 DG ~G2|AF~F2 fdcA||
dggf ~g2 de|~g2bg agfg|dffe ~f2fe|df~f2 af~f2|
dggf ~g2 de|~g2bg af ~f2|bg~g2 aggf|d^cde fd=cA||

